X:148
T: ACH SCHIFFMANN DU FEIN GUTER MANN
N: E0078A
O: Europa, Mitteleuropa, Deutschland, Halle
R: erzaehlendes Volks - Lied, Sage, Liebe
M: 2/4
L: 1/8
K: F
A | cAAA | AGG
G | FAcd | dccA | cAA
A | cAAA | AGG
G | FAcd | dcc
A | cAAA | AGG
B | AFGA | F2z
A | cAAA | AGG
G | FAcd | dccA | cAA
A | cAAA | AGG
G | FAcd | dcc
A | cAAA | AGG
B | AFGA | F2z
A | cAAA | AGG
G | FAcd | dccA | cAA
FFF | B2dddd | dcA
fcc | AAAAAG | G2F2z

@@@ Tune index: 3798
